X:8626
T:The Vampire's Lair
C:Phil Taylor
O:Scotland
R:Reel
Z:Transcribed by Phil Taylor
F:http://abc.musicaviva.com/tunes/taylor-phil/taylor-vampires-lair.abc
%Posted at abcusers July 22nd 2002 by Phil Taylor
M:C|
L:1/8
K:D Loc
A,2|\
D2 (FD) ADFD | EFGA (3dcd AF | D2    (FD)  ADFD | EFED CA,B,C |
D2 (FD) ADFD | EFGA d2    d2 | (3fed (3edc ddAF | DFEC D2    :|
(dc) | \
dcde ddAd | defd edBd | ({f}e)def eddc | defd d2Ad |
dcde ddAd | defd edBc | dcde      dBAF | DFEC D2  :|
W:
W:
W:  From Musica Viva - http://www.musicaviva.com
W:  the Internet center for free sheet music downloads.

